packages/katcn/src/icons/svg/mic.svg

<svg width="24" height="25" viewBox="0 0 24 25" fill="none" xmlns="http://www.w3.org/2000/svg">
<path fill-rule="evenodd" clip-rule="evenodd" d="M11.9 3.20801C10.0523 3.20801 8.5 4.76029 8.5 6.60801V10.508C8.5 12.3557 10.0523 13.908 11.9 13.908C13.8864 13.908 15.376 12.4276 15.3008 10.548C15.3003 10.5347 15.3 10.5213 15.3 10.508V6.60801C15.3 4.76029 13.7477 3.20801 11.9 3.20801ZM6.5 6.60801C6.5 3.65572 8.94771 1.20801 11.9 1.20801C14.8523 1.20801 17.3 3.65572 17.3 6.60801V10.489C17.4128 13.5988 14.9069 15.908 11.9 15.908C8.94771 15.908 6.5 13.4603 6.5 10.508V6.60801ZM4 9.508C4.55228 9.508 5 9.95571 5 10.508C5 14.3603 8.15168 17.4952 11.9773 17.4083L12 17.408C15.756 17.408 18.9 14.3475 18.9 10.508C18.9 9.95571 19.3477 9.508 19.9 9.508C20.4523 9.508 20.9 9.95571 20.9 10.508C20.9 15.1578 17.3362 18.9106 12.9 19.3624V22.208C12.9 22.7603 12.4523 23.208 11.9 23.208C11.3477 23.208 10.9 22.7603 10.9 22.208V19.3619C6.45328 18.8944 3 15.0777 3 10.508C3 9.95571 3.44772 9.508 4 9.508Z" fill="black"/>
</svg>

<svg xmlns="http://www.w3.org/2000/svg" fill="none" viewBox="0 0 24 25"><path fill="#000" fill-rule="evenodd" d="M11.9 3.208c-1.848 0-3.4 1.552-3.4 3.4v3.9c0 1.848 1.552 3.4 3.4 3.4 1.986 0 3.476-1.48 3.4-3.36v-3.94c0-1.848-1.552-3.4-3.4-3.4m-5.4 3.4c0-2.952 2.448-5.4 5.4-5.4s5.4 2.448 5.4 5.4v3.881c.113 3.11-2.393 5.419-5.4 5.419-2.952 0-5.4-2.448-5.4-5.4zM4 9.508a1 1 0 0 1 1 1c0 3.852 3.152 6.987 6.977 6.9H12c3.756 0 6.9-3.06 6.9-6.9a1 1 0 1 1 2 0c0 4.65-3.564 8.403-8 8.854v2.846a1 1 0 1 1-2 0v-2.846C6.453 18.894 3 15.078 3 10.508a1 1 0 0 1 1-1" clip-rule="evenodd"/></svg>
